logo/puppet.svg

<?xml version="1.0" encoding="UTF-8"?>
<svg width="512px" height="181px" viewBox="0 0 512 181" version="1.1" xmlns="http://www.w3.org/2000/svg" xmlns:xlink="http://www.w3.org/1999/xlink" preserveAspectRatio="xMidYMid">
    <g>
        <path d="M90.491902,90.491902 L90.491902,48.8528431 L58.6234118,48.8528431 L41.6390588,31.7771765 L41.6390588,0 L0,0 L0,41.6390588 L31.8684902,41.6390588 L48.9441569,58.7147255 L48.9441569,80.7213333 L31.8684902,97.797 L0,97.797 L0,139.436059 L41.6390588,139.436059 L41.6390588,107.658882 L58.7147255,90.5832157 L90.491902,90.5832157 L90.491902,90.491902 L90.491902,90.491902 Z M13.8796863,13.8796863 L27.7593725,13.8796863 L27.7593725,27.7593725 L13.8796863,27.7593725 L13.8796863,13.8796863 Z M27.7593725,125.465059 L13.8796863,125.465059 L13.8796863,111.585373 L27.7593725,111.585373 L27.7593725,125.465059 Z" fill="#FFAE1A"></path>
        <path d="M136.605333,180.983804 L118.251275,180.983804 L118.251275,90.491902 L136.605333,90.491902 L136.605333,95.9707255 C139.527373,92.4094902 146.101961,89.0308824 153.133118,89.0308824 C172.400314,89.0308824 183.266647,105.010784 183.266647,123.638784 C183.266647,142.266784 172.309,158.064059 153.133118,158.064059 C146.010647,158.064059 139.527373,154.685451 136.605333,151.124216 L136.605333,180.983804 L136.605333,180.983804 Z M136.605333,134.413804 C138.962642,139.11208 143.767511,142.079793 149.024,142.084157 C158.977196,142.084157 164.821275,134.139863 164.821275,123.638784 C164.821275,112.955078 158.885882,105.010784 149.024,105.010784 C143.77592,105.044562 138.985178,108.003549 136.605333,112.681137 L136.605333,134.413804 L136.605333,134.413804 Z M249.834353,156.603039 L231.480294,156.603039 L231.480294,150.576333 C226.896022,155.470219 220.470772,158.219166 213.765431,158.155373 C198.972608,158.155373 190.571745,148.384804 190.571745,133.774608 L190.571745,90.5832157 L208.925804,90.5832157 L208.925804,130.030745 C208.925804,136.970588 212.304412,141.718902 219.60951,141.718902 C225.270961,141.718902 230.110588,138.340294 231.480294,132.587529 L231.480294,90.5832157 L249.925667,90.5832157 L249.925667,156.603039 L249.834353,156.603039 L249.834353,156.603039 Z M280.333137,180.983804 L261.979078,180.983804 L261.979078,90.491902 L280.333137,90.491902 L280.333137,95.9707255 C283.255176,92.4094902 289.829765,89.0308824 296.860922,89.0308824 C316.128118,89.0308824 326.994451,105.010784 326.994451,123.638784 C326.994451,142.266784 316.036804,158.064059 296.860922,158.064059 C289.738451,158.064059 283.255176,154.685451 280.333137,151.124216 L280.333137,180.983804 L280.333137,180.983804 Z M280.333137,134.413804 C282.690446,139.11208 287.495315,142.079793 292.751804,142.084157 C302.705,142.084157 308.549078,134.139863 308.549078,123.638784 C308.549078,112.955078 302.613686,105.010784 292.751804,105.010784 C287.503724,105.044562 282.712982,108.003549 280.333137,112.681137 L280.333137,134.413804 Z M353.384118,180.983804 L335.030059,180.983804 L335.030059,90.491902 L353.384118,90.491902 L353.384118,95.9707255 C356.306157,92.4094902 362.880745,89.0308824 369.911902,89.0308824 C389.179098,89.0308824 400.045431,105.010784 400.045431,123.638784 C400.045431,142.266784 389.087784,158.064059 369.911902,158.064059 C362.789431,158.064059 356.306157,154.685451 353.384118,151.124216 L353.384118,180.983804 L353.384118,180.983804 Z M353.384118,134.413804 C355.741426,139.11208 360.546295,142.079793 365.802784,142.084157 C375.75598,142.084157 381.600059,134.139863 381.600059,123.638784 C381.600059,112.955078 375.664667,105.010784 365.802784,105.010784 C360.554704,105.044562 355.763962,108.003549 353.384118,112.681137 L353.384118,134.413804 Z M465.882627,134.961686 C463.508471,149.024 453.19002,158.064059 436.570922,158.064059 C417.303725,158.064059 404.519804,144.001745 404.519804,123.638784 C404.519804,103.641078 417.851608,89.0308824 436.29698,89.0308824 C455.65549,89.0308824 466.339196,102.454 466.339196,121.903824 L466.339196,127.565275 L422.234667,127.565275 C422.782549,137.518471 428.444,143.362549 436.570922,143.362549 C442.780255,143.362549 447.345941,140.714451 448.806961,135.053 L465.882627,135.053 L465.882627,134.961686 L465.882627,134.961686 Z M422.691235,116.333686 L448.259078,116.333686 C448.076451,109.393843 443.967333,103.91502 436.388294,103.91502 C429.357137,103.91502 424.334882,108.206765 422.691235,116.333686 Z M478.301294,105.284725 L468.256784,105.284725 L468.256784,90.491902 L478.301294,90.491902 L478.301294,72.5944118 L496.472725,72.5944118 L496.472725,90.491902 L510.991608,90.491902 L510.991608,105.284725 L496.472725,105.284725 L496.472725,134.231176 C496.472725,139.436059 499.303451,141.810216 504.051765,141.810216 C506.84676,141.792853 509.587476,141.036794 511.996059,139.618686 L511.996059,155.872529 C509.439275,157.242235 505.056216,157.972745 500.125275,157.972745 C486.702157,157.972745 478.20998,151.306843 478.20998,136.696647 L478.20998,105.284725 L478.301294,105.284725 Z" fill="#000000"></path>
    </g>
</svg>

<svg viewBox="0 0 512 181" xmlns="http://www.w3.org/2000/svg"><path fill="#FFAE1A" d="M90.49 90.49V48.85H58.62L41.63 31.77V-.01H-.01v41.63h31.86l17.07 17.07v22L31.84 97.76H-.03v41.63H41.6v-31.78l17.07-17.08h31.77v-.1 0ZM13.87 13.87h13.87v13.87H13.86V13.86Zm13.87 111.58H13.86v-13.88h13.87v13.87Z"/><path d="M136.6 180.98h-18.36v-90.5h18.35v5.47c2.92-3.57 9.49-6.94 16.52-6.94 19.26 0 30.13 15.97 30.13 34.6 0 18.62-10.96 34.42-30.14 34.42 -7.13 0-13.61-3.38-16.53-6.94v29.85 0Zm0-46.57c2.35 4.69 7.16 7.66 12.41 7.67 9.95 0 15.79-7.95 15.79-18.45 0-10.69-5.94-18.63-15.8-18.63 -5.25.03-10.04 2.99-12.42 7.67v21.73 0Zm113.22 22.18h-18.36v-6.03c-4.59 4.89-11.01 7.64-17.72 7.57 -14.8 0-23.2-9.78-23.2-24.39v-43.2h18.35v39.44c0 6.93 3.37 11.68 10.68 11.68 5.66 0 10.5-3.38 11.87-9.14V90.51h18.44v66.01h-.1v0Zm30.49 24.38h-18.36v-90.5h18.35v5.47c2.92-3.57 9.49-6.94 16.52-6.94 19.26 0 30.13 15.97 30.13 34.6 0 18.62-10.96 34.42-30.14 34.42 -7.13 0-13.61-3.38-16.53-6.94v29.85 0Zm0-46.57c2.35 4.69 7.16 7.66 12.41 7.67 9.95 0 15.79-7.95 15.79-18.45 0-10.69-5.94-18.63-15.8-18.63 -5.25.03-10.04 2.99-12.42 7.67v21.73Zm73.05 46.57H335v-90.5h18.35v5.47c2.92-3.57 9.49-6.94 16.52-6.94 19.26 0 30.13 15.97 30.13 34.6 0 18.62-10.96 34.42-30.14 34.42 -7.13 0-13.61-3.38-16.53-6.94v29.85 0Zm0-46.57c2.35 4.69 7.16 7.66 12.41 7.67 9.95 0 15.79-7.95 15.79-18.45 0-10.69-5.94-18.63-15.8-18.63 -5.25.03-10.04 2.99-12.42 7.67v21.73Zm112.49.54c-2.38 14.06-12.7 23.1-29.32 23.1 -19.27 0-32.06-14.07-32.06-34.43 0-20 13.33-34.61 31.77-34.61 19.35 0 30.04 13.42 30.04 32.87v5.66h-44.11c.54 9.95 6.2 15.79 14.33 15.79 6.2 0 10.77-2.65 12.23-8.31h17.07v-.1 0Zm-43.2-18.63h25.56c-.19-6.94-4.3-12.42-11.88-12.42 -7.04 0-12.06 4.29-13.7 12.41Zm55.61-11.05h-10.05v-14.8h10.04v-17.9h18.17v17.89h14.51v14.79h-14.52v28.94c0 5.2 2.83 7.57 7.57 7.57 2.79-.02 5.53-.78 7.94-2.2v16.25c-2.56 1.36-6.94 2.1-11.88 2.1 -13.43 0-21.92-6.67-21.92-21.28V105.2h.09Z"/></svg>
